X:1
T:Title
%%score { ( 1 4 5 ) | ( 2 3 ) }
L:1/8
M:4/4
K:F
V:1 treble nm="Grand Piano"
V:4 treble 
V:5 treble 
V:2 bass 
V:3 bass 
V:1
 z4 z2[Q:1/4=84] FG | A<A _A=A d<c GA | Bd [CA]>G F2 FF | dded dcAA | %4
[M:9/8] Gcc =B [CEc]2- [CEc]E-[EA] |[M:4/4] BdGA cBAG | Ac e>d c2 cc | dAdc cBD-[B,DG] | %8
 [A,CF][FA] [EA]>[EG] [A,CF]4 | c2 c2 c3 d | [Fc][EB][EB][_EA] B-[CB-][=EB]G | %11
 [EB]2 [FB]2 [GB]3 [Ec] | z4 =A4 | c2 c2 c3 [Af] |[M:17/16] ffedc3/2FGA | %15
[M:4/4] [Dc][DB][DA][DB] [B,D][B,D][CF][DG] |[M:15/16] [CA][FA]/-[FA]/[EA]-[EA]/[CG] [CF]3 |] %17
V:2
 z4 z2 [F,C]-[F,B,C] | [F,F]2- [F,-=B,F-][F,-CF-] [F,-_B,F-]<[F,A,F][K:treble] D-[A,D^F] | %2
 .[G,DG]2[K:bass] z z/ B,/ [D,A,D]2 DD | B,2 CB, B,A,[K:treble]CC | %4
[M:9/8] [CE][EG][DF]- [DF][K:bass] C,2- C, z A, |[M:4/4] G,2 B,A, G,2[K:treble] C2 | %6
 FA [=B,_A]2 [C=A]2[K:bass] F,_E, | A,4 z4 | z C C>B, [F,,C,]4 | %9
 [F,A,F]2 [G,B,E]2 [A,CF]3[K:bass] [F,A,F] | [C,A,][C,G,][C,G,][C,^F,] [C,G,]4 | %11
 [C,G,]2 [D,G,]2 [E,C]3 [C,C] | [F,DF][F,CF][F,CF][F,=B,F] .[CF]2 z2 | %13
 [F,A,F]2 [G,B,E]2 [A,CF]3 [F,_E] | %14
[M:17/16] [B,DB][B,DB][B,CF][B,F][A,CF]3/2[K:bass][A,C][G,CE][F,C_E] | %15
[M:4/4] [B,,B,][B,,B,][B,,B,][B,,B,] [B,,F,][B,,F,][A,,F,][B,,F,] | %16
[M:15/16] [C,F,][C,A,]/-[C,A,]/[C,C]-[C,C]/[B,,B,] [F,A,]3 |] %17
V:3
 z4 z2 .A,2 | C2 z2 z2[K:treble] .B,2 | z2[K:bass] C,2 z2 [D,A,]2 | B,,4 F,4[K:treble] | %4
[M:9/8] .G,6[K:bass] z C,2 |[M:4/4] C,8[K:treble] | [F,-C]2 F,4[K:bass] [A,F]2 | %7
 D,3- [D,D] [G,DG]2 A,,B,, | C,4 z4 | x7[K:bass] x | x8 | x8 | z4 F,4 | x8 | %14
[M:17/16] x11/2[K:bass] x3 |[M:4/4] x8 |[M:15/16] x15/2 |] %17
V:4
 x8 | x8 | z2 E2 z4 | F8 |[M:9/8] z3 z3 z .[B,G]2 |[M:4/4] E8 | x8 | ^F4 z2 .[CA]2 | x8 | x8 | %10
 z4 =E2 z2 | x8 | BAA_A z2 F=A | x8 |[M:17/16] x17/2 |[M:4/4] x8 |[M:15/16] x15/2 |] %17
V:5
 x8 | x8 | x8 | x8 |[M:9/8] x9 |[M:4/4] x8 | x8 | x8 | x8 | x8 | x8 | x8 | z4 z .C3 | x8 | %14
[M:17/16] x17/2 |[M:4/4] x8 |[M:15/16] x15/2 |] %17

